X:14
T:Johnny Mickey's Polka
R:polka
M:2/4
L:1/8
K:Amaj
|: c/B/ | Ac EF | A2 af | ec BA | e/f/e/c/ B c/B/ |
Ac EF |A2 af | ec B A/B/ |1 cA A :|2 cA A2 ||
|:ce ce | a2 af | ec BA | e/f/e/c/ B A/B/ | ce ce |
a2 af | ec B A/B/ |1 cA A2 :|2 cA A ||
